apps/scalable/pitivi.svg

<svg xmlns="http://www.w3.org/2000/svg" style="isolation:isolate" width="256" height="256"><defs><filter id="a" width="270.648" height="254.338" x="-7.32" y="2.95" filterUnits="userSpaceOnUse"><feGaussianBlur xmlns="http://www.w3.org/2000/svg" in="SourceGraphic" stdDeviation="4.294"/><feOffset xmlns="http://www.w3.org/2000/svg" dy="4" result="pf_100_offsetBlur"/><feFlood xmlns="http://www.w3.org/2000/svg" flood-opacity=".4"/><feComposite xmlns="http://www.w3.org/2000/svg" in2="pf_100_offsetBlur" operator="in" result="pf_100_dropShadow"/><feBlend xmlns="http://www.w3.org/2000/svg" in="SourceGraphic" in2="pf_100_dropShadow"/></filter></defs><g filter="url(#a)"><linearGradient id="b" x1=".5" x2=".5" y1="-.036" y2="1.036" gradientTransform="matrix(244.648 0 0 228.338 5.676 11.947)" gradientUnits="userSpaceOnUse"><stop offset="0%"/><stop offset="100%" stop-color="#333"/></linearGradient><path fill="url(#b)" d="M165.685 11.947c74.055 0 84.639 10.557 84.639 84.544v59.251c0 73.986-10.584 84.543-84.639 84.543h-75.37c-74.055 0-84.639-10.557-84.639-84.543V96.491c0-73.987 10.584-84.544 84.639-84.544h75.37z"/></g><path fill="#FFF" d="M8.476 55.74C6.729 66.667 6.158 80.255 6.158 97.205v59.251c0 73.986 10.584 84.544 84.64 84.544h75.369c55.135 0 75.078-5.874 81.675-39.397L8.476 55.74z" opacity=".05"/><g fill="#F7F7F7"><path d="M79.262 12.204c-5.847.083-11.904.114-16.916.408-5.544.325-10.104.992-14.706 1.657L33.345 67.618h31.071l14.846-55.414zM194.633 13.135c-1.647-.134-2.88-.42-4.623-.523-7.524-.442-15.952-.612-25.393-.612h-.608l-14.911 55.644h30.931l14.604-54.509zM137.082 12h-30.467L91.721 67.58h30.467L137.082 12z"/><circle r="1" transform="translate(217.809 59.367) scale(9.661)" vector-effect="non-scaling-stroke"/></g><g opacity=".4"><linearGradient id="c" x1=".517" x2=".517" y2="1"><stop offset="0%" stop-color="#fff"/><stop offset="12.5%" stop-opacity=".098" stop-color="#fff"/><stop offset="92.5%" stop-opacity=".098"/><stop offset="100%" stop-opacity=".498"/></linearGradient><path fill="none" stroke="url(#c)" stroke-linecap="round" stroke-linejoin="round" stroke-width="4.077" d="M165.685 11.947c74.055 0 84.639 10.557 84.639 84.544v59.251c0 73.986-10.584 84.543-84.639 84.543h-75.37c-74.055 0-84.639-10.557-84.639-84.543V96.491c0-73.987 10.584-84.544 84.639-84.544h75.37z" vector-effect="non-scaling-stroke"/></g><ellipse fill="#555753" rx="1" ry="1" transform="matrix(51.471 0 0 51.567 127.263 157.923)" vector-effect="non-scaling-stroke"/><path fill="#CCC" fill-rule="evenodd" d="M179.73 157.92zm0 0c.01 7.03-1.39 13.98-4.12 20.46a52.757 52.757 0 0 1-27.93 27.98 52.257 52.257 0 0 1-20.42 4.13c-7.01.01-13.95-1.4-20.41-4.13a52.628 52.628 0 0 1-16.68-11.27 52.757 52.757 0 0 1-11.25-16.71 52.67 52.67 0 0 1-4.13-20.46c0-7.02 1.4-13.98 4.13-20.45a52.645 52.645 0 0 1 11.25-16.71c4.78-4.8 10.44-8.62 16.68-11.27 6.46-2.73 13.4-4.14 20.41-4.13 7.02-.01 13.96 1.4 20.42 4.13 6.23 2.65 11.9 6.47 16.68 11.27a52.645 52.645 0 0 1 11.25 16.71 52.43 52.43 0 0 1 4.12 20.45zm-2 0c.01 6.76-1.34 13.45-3.97 19.68-2.54 6-6.21 11.46-10.82 16.07-4.6 4.62-10.04 8.3-16.04 10.84a50.18 50.18 0 0 1-19.64 3.98 50.34 50.34 0 0 1-35.68-14.82 50.642 50.642 0 0 1-10.82-16.07 50.763 50.763 0 0 1-3.97-19.68c0-6.75 1.35-13.45 3.97-19.67a50.685 50.685 0 0 1 10.82-16.08c4.6-4.61 10.05-8.29 16.05-10.84a50.158 50.158 0 0 1 19.63-3.97 50.17 50.17 0 0 1 19.64 3.97c6 2.55 11.44 6.23 16.04 10.84a50.685 50.685 0 0 1 10.82 16.08 50.316 50.316 0 0 1 3.97 19.67zm-50.47 50.57"/><path fill="#FFF" fill-rule="evenodd" d="M176.65 157.92c.01 6.61-1.32 13.15-3.88 19.24a49.48 49.48 0 0 1-10.59 15.71c-4.5 4.51-9.83 8.11-15.7 10.6a49.196 49.196 0 0 1-19.22 3.89c-6.6.01-13.13-1.32-19.21-3.89a49.466 49.466 0 0 1-15.7-10.6c-4.51-4.5-8.11-9.84-10.59-15.71a49.284 49.284 0 0 1-3.88-19.24c-.01-6.6 1.31-13.14 3.88-19.23a49.469 49.469 0 0 1 10.59-15.72c4.5-4.51 9.83-8.11 15.7-10.6a49.138 49.138 0 0 1 19.21-3.88c6.6-.01 13.14 1.31 19.22 3.88 5.87 2.49 11.2 6.09 15.7 10.6 4.51 4.51 8.1 9.85 10.59 15.72a49.416 49.416 0 0 1 3.88 19.23zm-2 0zm0 0c.01 6.34-1.26 12.62-3.73 18.46a47.466 47.466 0 0 1-10.16 15.08 47.463 47.463 0 0 1-15.06 10.17 47.073 47.073 0 0 1-18.44 3.73 47.06 47.06 0 0 1-18.43-3.73 47.506 47.506 0 0 1-15.07-10.17 47.798 47.798 0 0 1-10.16-15.08 47.377 47.377 0 0 1-3.72-18.46 47.328 47.328 0 0 1 3.72-18.45 47.574 47.574 0 0 1 10.16-15.08c4.32-4.33 9.44-7.79 15.07-10.17a47.06 47.06 0 0 1 18.43-3.73c6.34-.01 12.61 1.26 18.44 3.73a47.299 47.299 0 0 1 15.06 10.17c4.33 4.32 7.78 9.44 10.16 15.08a47.158 47.158 0 0 1 3.73 18.45z" opacity=".5"/><path fill="#EEEEEC" fill-rule="evenodd" d="M128.12 104.302l.157 57.507 53.097.157s1.753-23.095-15.488-40.547c-17.322-17.534-37.766-17.117-37.766-17.117z" opacity=".7"/><path fill="#F7F7F7" d="M124.454 192.64q-11.377 0-18.034-6.152l5.478-7.752q5.983 4.466 12.556 4.466 5.309 0 8.553-3.034 3.244-3.034 3.244-8.09 0-4.466-2.401-7.205-2.402-2.739-6.7-2.739-5.646 0-9.691 4.467l-9.185-4.045 2.359-29.916h32.191v9.522h-23.089l-1.349 13.147q4.298-2.697 9.438-2.697 8.68 0 13.61 5.52 4.93 5.519 4.93 13.862 0 9.101-6.11 14.874-6.109 5.772-15.8 5.772z"/><path fill="#CCC" d="M128.62 214.52a1.499 1.499 0 0 1-2.56 1.06c-.28-.28-.44-.66-.44-1.06v-9.96a1.499 1.499 0 0 1 2.56-1.06c.28.28.44.66.44 1.06v9.96zM183.78 161.21a1.499 1.499 0 0 1 1.5 1.5c0 .4-.15.78-.44 1.07-.28.28-.66.43-1.06.43h-58.02v-62.73a1.499 1.499 0 0 1 2.56-1.06c.28.28.44.66.44 1.06v59.73h55.02zM82.18 161.21c.4 0 .78.16 1.06.44.28.29.44.67.44 1.06 0 .4-.16.78-.44 1.07-.28.28-.66.43-1.06.43h-9.96c-.4 0-.78-.15-1.06-.43-.29-.29-.44-.67-.44-1.07a1.499 1.499 0 0 1 1.5-1.5h9.96z"/></svg>

<svg xmlns="http://www.w3.org/2000/svg" style="isolation:isolate" width="256" height="256" viewBox="0 0 256 256">
 <defs>
  <filter id="7mKNiXo5O1kSYjWBdvAztCHzaemkBrcF" width="270.648" height="254.338" x="-7.32" y="2.95" filterUnits="userSpaceOnUse">
   <feGaussianBlur xmlns="http://www.w3.org/2000/svg" in="SourceGraphic" stdDeviation="4.294"/>
   <feOffset xmlns="http://www.w3.org/2000/svg" dx="0" dy="4" result="pf_100_offsetBlur"/>
   <feFlood xmlns="http://www.w3.org/2000/svg" flood-opacity=".4"/>
   <feComposite xmlns="http://www.w3.org/2000/svg" in2="pf_100_offsetBlur" operator="in" result="pf_100_dropShadow"/>
   <feBlend xmlns="http://www.w3.org/2000/svg" in="SourceGraphic" in2="pf_100_dropShadow" mode="normal"/>
  </filter>
 </defs>
 <g filter="url(#7mKNiXo5O1kSYjWBdvAztCHzaemkBrcF)">
  <linearGradient id="_lgradient_274" x1=".5" x2=".5" y1="-.036" y2="1.036" gradientTransform="matrix(244.648,0,0,228.338,5.676,11.947)" gradientUnits="userSpaceOnUse">
   <stop offset="0%" style="stop-color:rgb(0,0,0)"/>
   <stop offset="100%" style="stop-color:rgb(51,51,51)"/>
  </linearGradient>
  <path fill="url(#_lgradient_274)" d="M 165.685 11.947 C 239.74 11.947 250.324 22.504 250.324 96.491 L 250.324 155.742 C 250.324 229.728 239.74 240.285 165.685 240.285 L 90.315 240.285 C 16.26 240.285 5.676 229.728 5.676 155.742 L 5.676 96.491 C 5.676 22.504 16.26 11.947 90.315 11.947 L 165.685 11.947 Z"/>
 </g>
 <g opacity=".05">
  <path fill="#FFFFFF" d="M 8.476 55.74 C 6.729 66.667 6.158 80.255 6.158 97.205 L 6.158 156.456 C 6.158 230.442 16.742 241 90.798 241 L 166.167 241 C 221.302 241 241.245 235.126 247.842 201.603 L 8.476 55.74 Z"/>
 </g>
 <g>
  <path fill="#F7F7F7" d="M 79.262 12.204 C 73.415 12.287 67.358 12.318 62.346 12.612 C 56.802 12.937 52.242 13.604 47.64 14.269 L 33.345 67.618 L 64.416 67.618 L 79.262 12.204 Z"/>
  <path fill="#F7F7F7" d="M 194.633 13.135 C 192.986 13.001 191.753 12.715 190.01 12.612 C 182.486 12.17 174.058 12 164.617 12 L 164.009 12 L 149.098 67.644 L 180.029 67.644 L 194.633 13.135 Z"/>
  <path fill="#F7F7F7" d="M 137.082 12 L 106.615 12 L 91.721 67.58 L 122.188 67.58 L 137.082 12 Z"/>
  <circle fill="#F7F7F7" cx="0" cy="0" r="1" transform="matrix(9.661,0,0,9.661,217.809,59.367)" vector-effect="non-scaling-stroke"/>
 </g>
 <g opacity=".4">
  <linearGradient id="_lgradient_275" x1=".517" x2=".517" y1="0" y2="1">
   <stop offset="0%" style="stop-color:rgb(255,255,255)"/>
   <stop offset="12.5%" stop-opacity=".098" style="stop-color:rgb(255,255,255)"/>
   <stop offset="92.5%" stop-opacity=".098" style="stop-color:rgb(0,0,0)"/>
   <stop offset="100%" stop-opacity=".498" style="stop-color:rgb(0,0,0)"/>
  </linearGradient>
  <path fill="none" stroke="url(#_lgradient_275)" stroke-linecap="round" stroke-linejoin="round" stroke-width="4.077" d="M 165.685 11.947 C 239.74 11.947 250.324 22.504 250.324 96.491 L 250.324 155.742 C 250.324 229.728 239.74 240.285 165.685 240.285 L 90.315 240.285 C 16.26 240.285 5.676 229.728 5.676 155.742 L 5.676 96.491 C 5.676 22.504 16.26 11.947 90.315 11.947 L 165.685 11.947 Z" vector-effect="non-scaling-stroke"/>
 </g>
 <g>
  <ellipse fill="#555753" cx="0" cy="0" rx="1" ry="1" transform="matrix(51.471,0,0,51.567,127.263,157.923)" vector-effect="non-scaling-stroke"/>
  <path fill="#CCCCCC" fill-rule="evenodd" d="M 179.73 157.92 M 179.73 157.92 L 179.73 157.92 C 179.73 157.92 179.73 157.92 179.73 157.92 Z M 179.73 157.92 C 179.74 164.95 178.34 171.9 175.61 178.38 C 172.97 184.62 169.15 190.29 164.36 195.09 C 159.58 199.88 153.91 203.71 147.68 206.36 C 141.22 209.09 134.28 210.5 127.26 210.49 C 120.25 210.5 113.31 209.09 106.85 206.36 C 100.61 203.71 94.95 199.88 90.17 195.09 C 85.38 190.29 81.56 184.62 78.92 178.38 C 76.19 171.9 74.79 164.95 74.79 157.92 C 74.79 150.9 76.19 143.94 78.92 137.47 C 81.56 131.23 85.38 125.55 90.17 120.76 C 94.95 115.96 100.61 112.14 106.85 109.49 C 113.31 106.76 120.25 105.35 127.26 105.36 C 134.28 105.35 141.22 106.76 147.68 109.49 C 153.91 112.14 159.58 115.96 164.36 120.76 C 169.15 125.55 172.97 131.23 175.61 137.47 C 178.34 143.94 179.74 150.9 179.73 157.92 Z M 127.26 208.49 M 127.26 210.49 M 127.26 210.49 M 127.26 210.49 M 127.26 210.49 M 177.73 157.92 L 177.73 157.92 C 177.74 164.68 176.39 171.37 173.76 177.6 C 171.22 183.6 167.55 189.06 162.94 193.67 C 158.34 198.29 152.9 201.97 146.9 204.51 C 140.69 207.14 134.01 208.5 127.26 208.49 C 127.26 208.49 127.26 208.49 127.26 208.49 L 127.26 208.49 C 120.52 208.5 113.84 207.14 107.63 204.51 C 101.63 201.97 96.18 198.29 91.58 193.67 C 86.97 189.06 83.3 183.6 80.76 177.6 C 78.14 171.37 76.79 164.68 76.79 157.92 C 76.79 151.17 78.14 144.47 80.76 138.25 C 83.3 132.24 86.97 126.79 91.58 122.17 C 96.18 117.56 101.63 113.88 107.63 111.33 C 113.84 108.7 120.52 107.35 127.26 107.36 C 134.01 107.35 140.69 108.7 146.9 111.33 C 152.9 113.88 158.34 117.56 162.94 122.17 C 167.55 126.79 171.22 132.24 173.76 138.25 C 176.39 144.47 177.74 151.16 177.73 157.92 C 177.73 157.92 177.73 157.92 177.73 157.92 L 177.73 157.92 Z M 127.26 208.49"/>
  <g opacity=".5">
   <path fill="#FFFFFF" fill-rule="evenodd" d="M 174.65 157.92 M 176.65 157.92 C 176.66 164.53 175.33 171.07 172.77 177.16 C 170.28 183.03 166.69 188.37 162.18 192.87 C 157.68 197.38 152.35 200.98 146.48 203.47 C 140.4 206.04 133.86 207.37 127.26 207.36 C 120.66 207.37 114.13 206.04 108.05 203.47 C 102.18 200.98 96.85 197.38 92.35 192.87 C 87.84 188.37 84.24 183.03 81.76 177.16 C 79.19 171.07 77.87 164.53 77.88 157.92 C 77.87 151.32 79.19 144.78 81.76 138.69 C 84.24 132.82 87.84 127.48 92.35 122.97 C 96.85 118.46 102.18 114.86 108.05 112.37 C 114.13 109.8 120.66 108.48 127.26 108.49 C 133.86 108.48 140.4 109.8 146.48 112.37 C 152.35 114.86 157.68 118.46 162.18 122.97 C 166.69 127.48 170.28 132.82 172.77 138.69 C 175.33 144.77 176.66 151.32 176.65 157.92 Z M 174.65 157.92 C 174.65 157.92 174.65 157.92 174.65 157.92 L 174.65 157.92 L 174.65 157.92 Z M 174.65 157.92 C 174.66 164.26 173.39 170.54 170.92 176.38 C 168.54 182.01 165.09 187.13 160.76 191.46 C 156.44 195.79 151.33 199.24 145.7 201.63 C 139.87 204.1 133.6 205.37 127.26 205.36 C 120.93 205.37 114.66 204.1 108.83 201.63 C 103.2 199.24 98.08 195.79 93.76 191.46 C 89.44 187.13 85.99 182.01 83.6 176.38 C 81.14 170.54 79.87 164.26 79.88 157.92 C 79.87 151.58 81.14 145.31 83.6 139.47 C 85.99 133.83 89.44 128.71 93.76 124.39 C 98.08 120.06 103.2 116.6 108.83 114.22 C 114.66 111.75 120.93 110.48 127.26 110.49 C 133.6 110.48 139.87 111.75 145.7 114.22 C 151.33 116.6 156.44 120.06 160.76 124.39 C 165.09 128.71 168.54 133.83 170.92 139.47 C 173.39 145.31 174.66 151.58 174.65 157.92 Z"/>
  </g>
  <g opacity=".7">
   <path fill="#EEEEEC" fill-rule="evenodd" d="M 128.12 104.302 L 128.277 161.809 L 181.374 161.966 C 181.374 161.966 183.127 138.871 165.886 121.419 C 148.564 103.885 128.12 104.302 128.12 104.302 L 128.12 104.302 Z"/>
  </g>
  <path fill="#F7F7F7" d="M 124.454 192.64 L 124.454 192.64 L 124.454 192.64 Q 113.077 192.64 106.42 186.488 L 106.42 186.488 L 111.898 178.736 L 111.898 178.736 Q 117.881 183.202 124.454 183.202 L 124.454 183.202 L 124.454 183.202 Q 129.763 183.202 133.007 180.168 L 133.007 180.168 L 133.007 180.168 Q 136.251 177.134 136.251 172.078 L 136.251 172.078 L 136.251 172.078 Q 136.251 167.612 133.85 164.873 L 133.85 164.873 L 133.85 164.873 Q 131.448 162.134 127.15 162.134 L 127.15 162.134 L 127.15 162.134 Q 121.504 162.134 117.459 166.601 L 117.459 166.601 L 108.274 162.556 L 110.633 132.64 L 142.824 132.64 L 142.824 142.162 L 119.735 142.162 L 118.386 155.309 L 118.386 155.309 Q 122.684 152.612 127.824 152.612 L 127.824 152.612 L 127.824 152.612 Q 136.504 152.612 141.434 158.132 L 141.434 158.132 L 141.434 158.132 Q 146.364 163.651 146.364 171.994 L 146.364 171.994 L 146.364 171.994 Q 146.364 181.095 140.254 186.868 L 140.254 186.868 L 140.254 186.868 Q 134.145 192.64 124.454 192.64 Z"/>
  <path fill="#CCCCCC" d="M 128.62 214.52 C 128.62 214.92 128.46 215.3 128.18 215.58 C 127.9 215.86 127.52 216.02 127.12 216.02 C 126.72 216.02 126.34 215.86 126.06 215.58 C 125.78 215.3 125.62 214.92 125.62 214.52 L 125.62 204.56 C 125.62 204.16 125.78 203.78 126.06 203.5 C 126.34 203.22 126.72 203.06 127.12 203.06 C 127.52 203.06 127.9 203.22 128.18 203.5 C 128.46 203.78 128.62 204.16 128.62 204.56 L 128.62 214.52 Z"/>
  <path fill="#CCCCCC" d="M 183.78 161.21 C 184.18 161.21 184.56 161.37 184.84 161.65 C 185.13 161.94 185.28 162.32 185.28 162.71 C 185.28 163.11 185.13 163.49 184.84 163.78 C 184.56 164.06 184.18 164.21 183.78 164.21 L 125.76 164.21 L 125.76 101.48 C 125.76 101.08 125.92 100.7 126.2 100.42 C 126.48 100.14 126.87 99.98 127.26 99.98 C 127.66 99.98 128.04 100.14 128.32 100.42 C 128.6 100.7 128.76 101.08 128.76 101.48 L 128.76 161.21 L 183.78 161.21 Z"/>
  <path fill="#CCCCCC" d="M 82.18 161.21 C 82.58 161.21 82.96 161.37 83.24 161.65 C 83.52 161.94 83.68 162.32 83.68 162.71 C 83.68 163.11 83.52 163.49 83.24 163.78 C 82.96 164.06 82.58 164.21 82.18 164.21 L 72.22 164.21 C 71.82 164.21 71.44 164.06 71.16 163.78 C 70.87 163.49 70.72 163.11 70.72 162.71 C 70.72 162.32 70.87 161.94 71.16 161.65 C 71.44 161.37 71.82 161.21 72.22 161.21 L 82.18 161.21 Z"/>
 </g>
</svg>
